X:0500
M:C
L:1/8
Q:1/2=72 "Slow"
K:D Minor
cd|f3 g  agfd   |(cA)(cd)   f3   F|(GA)(fd) c(ATG>F)|D2 d2 d2::
cd|f3 g  fgag   | f2  a2 {b}a2 Tgf| gfga   (ba)(Tgf)|d2 ga g2
fd|cdfg (ag)(fd)| cAcd      f3   g|(ag)(fd) cATGF   |D2 d4   :|

